X: 14366
T: Galop Hey
R: barndance
M: 4/4
K: Dmajor
|:D2 D2 F2 DF|A2 F2 d2 F2|A2 G2 E2 E2|B2 A2 F4|
D2 D2 F2 DF|A2 F2 d2 F2|A2 G2 E2 C2|E2 D2 D4:|
|:A4 AG EG|B2 A2 F4|A4 AG EG|B2 A2 F4|
D2 D2 F2 DF|A2 F2 d2 F2|A2 G2 E2 C2|E2 D2 D4:|
|:B3B B2 B2|B2 B2 G2 B2|A2 A2 F2 A2|GF GA B2 D2|
B3B B2 B2|B2 B2 G2 B2|A2 A2 F2 A2|A2 G2 G4:|

